X: 1
T: String Quartet in C Major opus 54 no 2 mvt 1
C: Franz Joseph Haydn
%%abc-version 2.0
%%abcx-abcm2ps-target-version 5.9.1 (29 Sep 2008)
%%abc-creator hum2abc beta
%%abcx-conversion-date 2021/02/14 14:38:10
%%abc-copyright Copyright (c) 1994, 2000 Center for Computer Assisted Research in the Humanities
%%abc-edited-by Walter Hewlett
%%abcx-initial-encoding-date 1994/07/25
%%gracespace 0 6 6
%%humdrum-veritas 2111118274
%%humdrum-veritas-data 3952553070
%%linebreak <none>
%%barnumbers 0
L: 1/8
M: 4/4
N: Derived from op54n2-01.krn
Q: "Vivace"
%%staves [1 2 3 4]
V: 1 clef=treble
V: 2 clef=treble
V: 3 clef=alto
V: 4 clef=bass
K: C
[V:1]g6 g2 [I:setbarnb2] |
[V:2]E8- |
[V:3]G,8- |
[V:4]C,8- |
[V:1]c'2 .e2 .g2 c2 |
[V:2]E8- |
[V:3]G,8- |
[V:4]C,8- |
[V:1]e2 .G2 .c2 [EG,]G |
[V:2]E6 .C2 |
[V:3]G,4 z4 |
[V:4]C,4 z4 |
[V:1]FG EF DF EG &G,8 |
[V:2].D2 .C2 .B,2 .C2 |
[V:3]z8 |
[V:4]z8 |
[V:1][F2G,2] .B2 .d2 z2 |
[V:2].D2 z2 z4 |
[V:3]z8 |
[V:4]z8 |
[V:1]z8 |
[V:2]z8 |
[V:3]z8 |
[V:4]z8 |
[V:1]f6 f2 |
[V:2][B8D8] -|
[V:3]F8- |
[V:4]G,,8- |
[V:1]a2 .d2 .f2 B2 |
[V:2][B8D8-] |
[V:3]F8- |
[V:4]G,,8- |
[V:1]d2 .F2 .A2 [DG,]E |
[V:2][B4D4] z4 |
[V:3]F6 B,C |
[V:4]G,,4 z4 |
[V:1]FG EG FG DF &G,8 |
[V:2]z8 |
[V:3].D2 .C2 .D2 .B,2 |
[V:4]z8 |
[V:1][E2G,2] .c2 .e2 z2 |
[V:2]z8 |
[V:3].C2 z2 z4 |
[V:4]z8 |
[V:1]z8 |
[V:2]z8 |
[V:3]z8 |
[V:4]z8 |
[V:1]c6 c2 |
[V:2]_E8- |
[V:3]C8- |
[V:4]_A,,8- |
[V:1]_e2 ._A2 .c2 _E2 |
[V:2]E8- |
[V:3]C8- |
[V:4]A,,8- |
[V:1]_A2 .C2 ._E2 CE |
[V:2]E6 ._A,2 |
[V:3]C4 z4 |
[V:4]A,,4 z4 |
[V:1]._D._E .C.E ._B,.E .D.E |
[V:2]._B,2 ._A,2 .G,2 .B,2 |
[V:3]z4 z2 .G,2 |
[V:4]z4 z2 ._E,2 |
[V:1]C_E ._A.c _ec .A.E |
[V:2]._A,2 z2 z2 .C2 |
[V:3]._A,2 .C2 z4 |
[V:4]._A,2 ._A,,2 z4 |
[V:1]._D._E .C.E ._B,.E .D.E |
[V:2]._B,2 ._A,2 .G,2 .B,2 |
[V:3]z4 z2 .G,2 |
[V:4]z4 z2 ._E,2 |
[V:1]C_E ._A.c _ec .A.E |
[V:2]._A,2 z2 z2 .C2 |
[V:3]._A,2 .C2 z4 |
[V:4]._A,2 ._A,,2 z4 |
[V:1]._D._E .C.E ._B,.E .D.E |
[V:2]._B,2 ._A,2 .G,2 .B,2 |
[V:3]z4 z2 .G,2 |
[V:4]z4 z2 ._E,2 |
[V:1]C_E ._A.c _ec .A.G |
[V:2]._A,2 z2 z4 |
[V:3]._A,2 .C2 z4 |
[V:4]._A,2 ._A,,2 z4 |
[V:1].^F2 .F2 .F2 F2 |
[V:2]z2 ._E2 .E2 E2 |
[V:3]z2 .C2 .C2 C2- |
[V:4]z2 ._A,2 .A,2 A,2 |
[V:1]G2 .=A2 .A2 .A2 |
[V:2]=E2 .F2 .F2 .F2 |
[V:3]C2 .C2 .C2 .C2 |
[V:4]G,2 .F,2 .F,2 .F,2 |
[V:1]C4 DC DE |
[V:2]C4 =B,4 |
[V:3]E,4 G,2 F,2 |
[V:4]G,,8 |
[V:1]C2 z2 z4 |
[V:2]C2 z2 z4 |
[V:3]E,2 z2 z4 |
[V:4]C,2 z2 z4 |
[V:1]z2 .^f2 .f2 !turn!f2 |
[V:2]z2 .d2 .d2 d2 |
[V:3]z2 .c2 .c2 c2- |
[V:4]z2 [K:clef=tenor].=A2 .A2 A2 |
[V:1]g2 .a2 .a2 .a2 |
[V:2]e2 .f2 .f2 .f2 |
[V:3]c2 .c2 .c2 .c2 |
[V:4]G2 .F2 .F2 .F2 [K:clef=bass]|
[V:1]c4 dc de |
[V:2]c4 B4 |
[V:3]E4 G2 F2 |
[V:4]G,8 |
[V:1]c2 z2 z4 |
[V:2]c2 z2 z4 |
[V:3]E2 z2 z4 |
[V:4]C2 z2 z4 |
[V:1]c'6 c'2 |
[V:2][c8E8] -|
[V:3][E8A,8] -|
[V:4]A,,8- |
[V:1].e'2 !turn!b2 .c'2 !turn!^g2 |
[V:2][c8E8-] |
[V:3][E8A,8-] |
[V:4]A,,8- |
[V:1].a2 !turn!^d2 .e2 !turn!B2 |
[V:2][c8E8-] |
[V:3][E8A,8-] |
[V:4]A,,8- |
[V:1].c2 !turn!^G2 .A2 E2 |
[V:2][c8E8] |
[V:3][E8A,8] |
[V:4]A,,8 |
[V:1]F4 .E2 .^D2 |
[V:2]C8 |
[V:3]F4 z4 |
[V:4]A,8 |
[V:1]E^G Be ^gb ge |
[V:2]B,2 z2 z4 |
[V:3]z2 .^G,2 .B,2 .E2 |
[V:4]^G,2 z2 z4 |
[V:1]E4 .=D2 .^C2 |
[V:2]_B,8 |
[V:3]z8 |
[V:4]=G,8 |
[V:1]DF Ad fa fd |
[V:2]A,2 z2 z4 |
[V:3]z2 .F,2 .A,2 .D2 |
[V:4]F,2 z2 z4 |
[V:1]D4 .=C2 .B,2 |
[V:2]=B,4 .C2 .D2 |
[V:3]G,8 |
[V:4]F,8 |
[V:1]CE Gc eg ec |
[V:2]C8- |
[V:3]G,8 |
[V:4]E,8 |
[V:1]^fa fd cA ^FC |
[V:2]C8 |
[V:3]A,4 ^F4 |
[V:4]D,8- |
[V:1]B,D GB dg bg |
[V:2]B,8 |
[V:3]G8 |
[V:4]D,8- |
[V:1]eg e^c _BG E^C |
[V:2][=E8^C8] |
[V:3][=G8_B,8] |
[V:4]D,8 |
[V:1]Dd ed .^c.d .=c.d |
[V:2]D2 z2 z2 A2 |
[V:3][^F2=A,2] z2 z2 D2- |
[V:4]D,2 z2 z2 ^F,2 |
[V:1].B.d .g.b .d'.b .g.d |
[V:2]Bz z2 z2 B2 |
[V:3]Dz z2 z2 G2 |
[V:4]G,z z2 z2 G,2 |
[V:1]Dd ed .^c.d .=c.d |
[V:2]=cz z2 z2 c2 |
[V:3]Az z2 z2 A2 |
[V:4]^F,z z2 z2 F,2 |
[V:1].B.d .g.b .d'.b .g.d |
[V:2]Bz z2 z2 B2 |
[V:3]Gz z2 z2 G2 |
[V:4]G,z z2 z2 G,2 |
[V:1]Dd ed .^c.d .=c.d |
[V:2]cz z2 z2 c2 |
[V:3]Az z2 z2 A2 |
[V:4]^F,z z2 z4 |
[V:1]_Bd g_b d'b gd |
[V:2]_B8- |
[V:3]D8- |
[V:4]G,8- |
[V:1]G_B dg _bg dB |
[V:2]B8- |
[V:3]D8 |
[V:4]G,8 |
[V:1]_EG _B_e ge BG |
[V:2]B8- |
[V:3]G8- |
[V:4]_E,8- |
[V:1]_EG ._B.G DG .B.G |
[V:2]B8- |
[V:3]G8- |
[V:4]E,4 D,4 |
[V:1]^CG _BG .=e'G B.G |
[V:2]B8- |
[V:3]G8- |
[V:4]^C,8- |
[V:1]^CG ._B.G .e'G B.G |
[V:2]B8 |
[V:3]G8 |
[V:4]C,8 |
[V:1]^FD .F.A .d.^f .a.^c' |
[V:2]A4 D^F A^c |
[V:3]^F4 DF A^c |
[V:4]D,4 D,^F, A,^C |
[V:1]d'6 =c'2 |
[V:2]d2 ^F2 G2 A2 |
[V:3]d2 D2 E2 ^F2 |
[V:4]D2 z2 z4 |
[V:1]b4- bd' c'e' |
[V:2]=B2 z2 z4 |
[V:3]G4- GB A=c |
[V:4]G,2 z2 z4 |
[V:1].d'z d'2 .bz c'2 |
[V:2]z2 .d2 z2 .d2 |
[V:3].Bz B2 .Gz A2 |
[V:4]z8 |
[V:1].az b2 .gz ba |
[V:2]z2 .d2 z2 .E2 |
[V:3].^Fz G2 .B,z C2 |
[V:4]z8 |
[V:1].d2 .d2 .d2 ba |
[V:2].D2 z2 z4 |
[V:3].D2 z2 z4 |
[V:4]z8 |
[V:1].c2 .c2 .c2 a2 |
[V:2].D2 .D2 .D2 z2 |
[V:3].A,2 .A,2 .A,2 z2 |
[V:4].^F,2 .F,2 .F,2 z2 |
[V:1].Bz g2 .Az e2 |
[V:2].D2 z2 .E2 z2 |
[V:3].G,2 z2 .G,2 z2 |
[V:4].G,2 z2 .=C,2 z2 |
[V:1]G4 A3 G |
[V:2]B,4 D2 C2 |
[V:3]G,4 ^F,4 |
[V:4]D,8 |
[V:1].G.B .d.^f .g.a .b.c' |
[V:2]B,2 z2 z4 |
[V:3]G,2 z2 z4 |
[V:4]G,,4 z4 |
[V:1]d'8- |
[V:2]B4- Bd ce |
[V:3]G4- GB Ac |
[V:4]z8 |
[V:1]d'8- |
[V:2].dz d2 .Bz c2 |
[V:3].Bz B2 .Gz A2 |
[V:4]z8 |
[V:1]d'8- |
[V:2].Az B2 .Gz BA |
[V:3].^Fz G2 .B,z C2 |
[V:4]z8 |
[V:1].d'z d'2 .bz c'2 |
[V:2].Dz d2 .Dz d2 |
[V:3].D2 z2 z4 |
[V:4]z2 B,2 .G,z A,2 |
[V:1].az b2 .gz ba |
[V:2].Dz d2 .Dz d2 |
[V:3]z8 |
[V:4].^F,z G,2 .B,,z C,2 |
[V:1].d2 .d2 .d2 ba |
[V:2].D2 z2 z4 |
[V:3]z8 |
[V:4].D,2 z2 z4 |
[V:1].c2 .c2 .c2 ba |
[V:2].A2 .A2 .A2 z2 |
[V:3].D2 .D2 .D2 z2 |
[V:4].^F,2 .F,2 .F,2 z2 |
[V:1]Bz ag .Az ^de |
[V:2].D2 z2 .E2 z2 |
[V:3].G2 z2 .C2 z2 |
[V:4].G,2 z2 .C,2 z2 |
[V:1]G4 A3 G |
[V:2]B,4 D2 C2 |
[V:3]G,4 ^F,4 |
[V:4]D,8 |
[V:1]GD .d.B GD .g.d |
[V:2]B,2 z2 z4 |
[V:3]G,4 z4 |
[V:4]G,4 z4 |
[V:1]BG .b.g dB .d'.b |
[V:2][B2D2] z2 z4 |
[V:3]G,4 z4 |
[V:4]G,4 z4 |
[V:1]gd .g'.g' .g'.g' .g'.g' |
[V:2][B2D2] .B,.D GB .B,.D |
[V:3]G,2 .G,.B, DG .G,.B, |
[V:4]G,4 z4 |
[V:1]g'd' .b'.b' .b'.b' .b'.b' |
[V:2]GB .D.G Bd .D.G |
[V:3]DG .B,.D GB .B,.D |
[V:4]G,4 z4 |
[V:1]b'g' .d''.d'' .d''.d'' .d''.d'' |
[V:2]Bd .B.d gb .B.d |
[V:3]GB .d.B GD .d.B |
[V:4]G,2 .G,,.B,, D,G, .G,,.B,, |
[V:1]d''2 .B,.G, .C.G, .D.G, |
[V:2]gb z2 z4 |
[V:3]GD z2 z4 |
[V:4]D,G, .G,,2 .A,,2 .B,,2 |
[V:1].E2 !turn!E2 ^F2 G2 |
[V:2]z8 |
[V:3]z8 |
[V:4].C,2 z2 z4 |
[V:1]G,4 A,3 G, |
[V:2]B,4 D2 C2 |
[V:3]G,4 ^F,4 |
[V:4]D,4 D,,4 |
[V:1]G,z G2 .^Fz A2 |
[V:2]B,z B,2 .A,z C2 |
[V:3]G,2 z2 z4 |
[V:4]G,,2 z2 z4 |
[V:1].Gz B2 .Az c2 |
[V:2].B,z G2 .^Fz A2 |
[V:3]z2 G2 .G,z G2 |
[V:4]z8 |
[V:1].Bz d2 .cz e2 |
[V:2].Gz B2 .Az c2 |
[V:3].G,z z2 z4 |
[V:4]z2 G,2 .G,,z G,2 |
[V:1].dz z2 z2 ^c2 |
[V:2].Bz z2 z2 ^A2 |
[V:3]z8 |
[V:4].G,,z z2 z4 |
[V:1].dz ^c2 .dz e2 |
[V:2].Bz ^A2 .Bz ^c2 |
[V:3]z8 |
[V:4]z8 |
[V:1].=fz z2 z2 e2 |
[V:2].dz z2 z2 ^C2 |
[V:3]z8 |
[V:4]z8 |
[V:1].fz e2 .fz ^f2 :|]
[V:2].Dz ^C2 .Dz ^D2 :|]
[V:3]z8 :|]
[V:4]z8 :|]
[V:1]fz ^f2 .gz a2 ]|:
[V:2]Dz ^D2 .Ez ^F2 ]|:
[V:3]z8 ]|:
[V:4]z8 ]|:
[V:1]_b6 b2 |
[V:2]G8 |
[V:3][=E8_B,8] |
[V:4]C,8- |
[V:1]d'2 .g2 _b2 e2 |
[V:2][E8-G,8] |
[V:3]_B,8- |
[V:4]C,8- |
[V:1]g2 ._B2 .d2 !turn!G2 |
[V:2][E6G,6] !turn!G2 |
[V:3]B,6 !turn!G2 |
[V:4]C,6 !turn!G,2 |
[V:1]_B2 .E2 .G2 !turn!_B,2 |
[V:2]_B2 .E2 .G2 !turn!_B,2 |
[V:3]_B2 .E2 .G2 !turn!_B,2 |
[V:4]_B,2 .E,2 .G,2 !turn!_B,,2 |
[V:1]A,2 .C2 .F2 !turn!_B2 |
[V:2]A,2 .C2 .F2 !turn!G2 |
[V:3]A,2 .C2 .F2 E2 |
[V:4]A,,2 .C,2 .F,2 z2 |
[V:1]A2 .c2 .f2 !turn!g2 |
[V:2]F2 z2 z2 !turn!e2 |
[V:3]F2 z2 z2 ._B,.C |
[V:4]z4 z2 !turn!C,2 |
[V:1]a2 .f2 .c2 z2 |
[V:2]f2 z2 z2 !turn!G2 |
[V:3].A,.C .F.C .A,.C ._B,.C |
[V:4]F,2 z2 z2 !turn!E2 |
[V:1]z4 z2 a2 |
[V:2]A2 .F2 .C2 !turn!^f2 |
[V:3]A,C FC A,F CD |
[V:4]F2 z2 z2 D,2 |
[V:1]_b2 .g2 .d2 z2 |
[V:2]g2 z2 z2 A2 |
[V:3]_B,D GD B,D CD |
[V:4]G,,2 z2 z2 [K:clef=tenor]!turn!^F2 |
[V:1]z4 z2 !turn!_b2 |
[V:2]_B2 .G2 .D2 z2 |
[V:3]_B,D GD B,D GD |
[V:4]G2 z2 z4 [K:clef=bass]|
[V:1]_e'2 ._b2 .g2 ._e2 |
[V:2]z2 _E4 _B,2 |
[V:3]_B,_E GE B,E GE |
[V:4]G,,8 |
[V:1].d2 F2 =E2 D2 |
[V:2].D2 z2 z2 d2 |
[V:3].F2 D,2 =E,2 F,2 |
[V:4]^G,,8 |
[V:1]Aa _ba .^g.a .=g.a |
[V:2]^c2 z2 z2 e2 |
[V:3]E,2 z2 z2 A2 |
[V:4]A,,4 z2 ^C2 |
[V:1].f.d .f.a .d'.a .f.d |
[V:2]fz z2 z2 f2 |
[V:3]A,z z2 z2 A2 |
[V:4]Dz z2 z2 D2 |
[V:1]Aa _ba .^g.a .=g.a |
[V:2]ez z2 z2 !turn!e2 |
[V:3]A,z z2 z2 A2 |
[V:4]^Cz z2 z2 !turn!C2 |
[V:1].f.d .f.a .d'.a .f.d |
[V:2]fz z2 z2 !turn!f2 |
[V:3]A,z z2 z2 A2 |
[V:4]Dz z2 z2 !turn!D2 |
[V:1]Aa _ba .^g.a .=g.a |
[V:2]ez z2 z2 A,2 |
[V:3]A,z z2 z2 A2 |
[V:4]^Cz z2 z2 C2 |
[V:1]f2 ^f4 a2 |
[V:2]Dd _ed .^c.d .=c.d |
[V:3]A,z z2 z4 |
[V:4]=Dz z2 z4 |
[V:1]g2 !turn!a2 _b2 d'2 |
[V:2]._B.d .A.d .G.d .F.d |
[V:3]z8 |
[V:4]z8 |
[V:1]c'2 e4 g2 |
[V:2]=Ec dc .=B.c ._B.c |
[V:3]z8 |
[V:4]z8 |
[V:1]f2 !turn!g2 a2 c'2 |
[V:2].A.c .G.c .F.c .E.c |
[V:3]z8 |
[V:4]z8 |
[V:1]_b2 d4 f2 |
[V:2]D_B cB .c.B .A.B |
[V:3]z8 |
[V:4]z8 |
[V:1]e2 !turn!f2 g2 _b2 |
[V:2].G._B .F.B .=E.B .D.B |
[V:3]z8 |
[V:4]z8 |
[V:1]a2 ^c4 e2 |
[V:2]^C2 E4 C2 |
[V:3]z4 z2 A,2 |
[V:4]A,,A, _B,A, .^G,.A, .=G,.A, |
[V:1]d2 !turn!e2 f2 ^f2 |
[V:2]D2 z2 z2 D2 |
[V:3].A._B .G.A .F.G .A.^F |
[V:4].F,.G, .E,.F, .D,.E, .C,.D, |
[V:1]g2 !turn!a2 _b2 d'2 |
[V:2].d._e .=c.d ._B.c .A.B |
[V:3]E2 ^F2 G2 z2 |
[V:4]_B,,C, A,,B,, G,,A,, F,,G,, |
[V:1]=c'6 _b2 |
[V:2].G.A .F.G .E._B .A.G |
[V:3]z4 z2 G,2 |
[V:4]E,,F,, D,,E,, C,,C, E,,C, |
[V:1].az f2 .cz a2 |
[V:2]Fc dc .=B.c .F.c |
[V:3]A,2 z2 z2 F2 |
[V:4]F,,2 z2 z2 F,2 |
[V:1]._bz g2 .cz b2 |
[V:2]Ec dc .=B.c .E.c |
[V:3]G2 z2 z2 G2 |
[V:4]C,2 z2 z2 C,2 |
[V:1].az f2 .cz a2 |
[V:2]Fc dc .B.c .F.c |
[V:3]A2 z2 z2 F2 |
[V:4]F,2 z2 z2 F,2 |
[V:1]._bz g2 .cz b2 |
[V:2]Ec dc .=B.c .E.c |
[V:3]G2 z2 z2 E2 |
[V:4]C,2 z2 z2 C,2 |
[V:1].az e2 .fz ^c2 |
[V:2]F2 z2 z4 |
[V:3].F.A .F.A FA FA |
[V:4]F,2 z2 z4 |
[V:1].dz A2 .=Bz =c2 |
[V:2]z8 |
[V:3]^FA FA FA FA |
[V:4]z8 |
[V:1].Bz c2 .dz e2 |
[V:2]z2 A2 .Bz ^c2 |
[V:3]G2 z2 z4 |
[V:4]z8 |
[V:1].fz z2 z2 e2 |
[V:2].dz z2 z2 ^c2 |
[V:3]z2 G2 G,z z2 |
[V:4]z8 |
[V:1].fz e2 .fz e2 |
[V:2].dz ^c2 .dz c2 |
[V:3]z8 |
[V:4]z8 |
[V:1].fz z2 z2 e2 |
[V:2].dz z2 z2 ^C2 |
[V:3]z2 G2 .G,z z2 |
[V:4]z8 |
[V:1].fz e2 .fz ^f2 |
[V:2].Dz ^C2 .Dz ^D2 |
[V:3]z8 |
[V:4]z8 |
[V:1]g6 g2 |
[V:2][E8G,8] -|
[V:3]C8- |
[V:4].C,,.E,, .G,,.C, .E,.C, .G,,.E,, |
[V:1]c'2 .e2 .g2 c2 |
[V:2][E8G,8-] |
[V:3]C8- |
[V:4]C,,8- |
[V:1]e2 .G2 .c2 [EG,]G |
[V:2][E6G,6] .C2 |
[V:3]C4 z4 |
[V:4]C,,4 z4 |
[V:1]FG EF DF EG &G,8 |
[V:2].D2 .C2 .B,2 .C2 |
[V:3]z8 |
[V:4]z8 |
[V:1][F2G,2] .B2 .d2 z2 |
[V:2].D2 z2 z4 |
[V:3]z8 |
[V:4]z8 |
[V:1].f2 .b2 .d'2 z2 |
[V:2]z8 |
[V:3]z8 |
[V:4]z8 |
[V:1]f6 f2 |
[V:2][B8D8] -|
[V:3]F8- |
[V:4].G,,.B,, .D,.G, .B,.G, .D,.B,, |
[V:1]a2 .d2 .f2 B2 |
[V:2][B8D8-] |
[V:3]F8- |
[V:4]G,,8- |
[V:1]d2 .F2 .A2 [DG,]E |
[V:2][B4D4] z4 |
[V:3]F6 B,C |
[V:4]G,,4 z4 |
[V:1]FG EG FG DF &G,8 |
[V:2]z8 |
[V:3].D2 .C2 .D2 .B,2 |
[V:4]z8 |
[V:1][E2G,2] .c2 .e2 z2 |
[V:2]z8 |
[V:3].C2 z2 z4 |
[V:4]z8 |
[V:1].g2 .c'2 .e'2 z2 |
[V:2]z8 |
[V:3]z8 |
[V:4]z8 |
[V:1]c6 c2 |
[V:2].C._E ._A.c ._e.c .A.E |
[V:3]._A,.C ._E._A .c.A .E.C |
[V:4]_A,,8- |
[V:1]_e2 ._A2 .c2 !turn!_E2 |
[V:2]C2 _E4 E2 |
[V:3]_A,2 C4 C2 |
[V:4]A,,8- |
[V:1]_A2 .C2 ._E2 CE |
[V:2]_E6 ._A,2 |
[V:3]C4 z4 |
[V:4]A,,4 z4 |
[V:1]._D._E .C.E ._B,.E .D.E |
[V:2]._B,2 ._A,2 .G,2 .B,2 |
[V:3]z4 z2 G,2 |
[V:4]z4 z2 !turn!_E,2 |
[V:1]C_E ._A.c _ec .A.E |
[V:2]_A,2 z2 z2 .C2 |
[V:3]_A,2 .C2 z4 |
[V:4]_A,2 _A,,2 z4 |
[V:1]._D._E .C.E ._B,.E .D.E |
[V:2]._B,2 ._A,2 .G,2 .B,2 |
[V:3]z4 z2 G,2 |
[V:4]z4 z2 !turn!_E,2 |
[V:1]C_E ._A.c _ec .A.E |
[V:2]._A,2 z2 z2 .C2 |
[V:3]_A,2 .C2 z4 |
[V:4]._A,2 _A,,2 z4 |
[V:1]._D._E .C.E ._B,.E .D.E |
[V:2]._B,2 ._A,2 .G,2 .B,2 |
[V:3]z4 z2 G,2 |
[V:4]z4 z2 _E,2 |
[V:1]C_E ._A.c _e_d .c._B |
[V:2]C2 _E4 !turn!=E2 |
[V:3]_A,2 .C2 z4 |
[V:4]_A,,6 _G,,2 |
[V:1].=A.c ._G.c .F.c ._E.c |
[V:2].F2 ._E2 ._D2 .C2 |
[V:3]z2 .F,2 .G,2 .=A,2 |
[V:4]F,,8 |
[V:1]=DF ._B.d f_e .d.c |
[V:2]._B,2 F4 !turn!^F2 |
[V:3]._B,2 .=D2 z4 |
[V:4]_B,,6 _A,,2 |
[V:1].=B.d ._A.d .G.d .F.d |
[V:2].G2 .=F2 ._E2 .D2 |
[V:3]z2 .G,2 .=A,2 .=B,2 |
[V:4]=G,,8 |
[V:1]_EG .c._e ge .d.c |
[V:2]_E2 G4 c2- |
[V:3]C2 _E4 _E,2 |
[V:4]C,8 |
[V:1]._a.g .f._e .d.c .=B.c |
[V:2]c2 ._A.G .F._E .D.E |
[V:3]F,6 ^F,2 |
[V:4]F,6 ^F,2 |
[V:1].B2 g4 !turn!B2 |
[V:2]D2 z2 z4 |
[V:3]G,G ._A.G .^F.G .=F.G |
[V:4]G,2 z2 z4 |
[V:1].c2 .d2 ._e2 !turn!^f2 |
[V:2]z2 .!turn!B,2 .C2 .c2 |
[V:3]._E.G .D.G .C.G ._A,.G |
[V:4]z8 |
[V:1]g2 g4 !turn!=B2 |
[V:2]B2 z2 z4 |
[V:3]G,2 z2 z2 .D2 |
[V:4]G,,G, _A,G, .^F,.G, .=F,.G, |
[V:1].c2 .d2 ._e2 .^f2 |
[V:2]z8 |
[V:3]G2 !turn!B,2 C2 .c2 |
[V:4]._E,.G, .D,.G, .C,.G, ._A,,.G, |
[V:1].gg =ag ^fg ag |
[V:2]g8 |
[V:3]B8 |
[V:4]G,,8- |
[V:1]za =ba ^ga ba |
[V:2]^f8 |
[V:3]c8 |
[V:4]G,,8- |
[V:1]zb c'b ab c'b |
[V:2]=f8 |
[V:3]d8 |
[V:4]G,,8- |
[V:1]zc' d'c' bc' d'c' |
[V:2]=e8 |
[V:3]c8 |
[V:4]G,,8- |
[V:1]zd' e'd' ^c'd' =e'd' |
[V:2]B8 |
[V:3]F8 |
[V:4]G,,8- |
[V:1].f'2 .d'2 .b2 .g2 |
[V:2]B8- |
[V:3]D8- |
[V:4]G,,8- |
[V:1]!fermata!f8 |
[V:2]!fermata!B8 |
[V:3]!fermata!D8 |
[V:4]!fermata!G,,8 |
[V:1]e4- eg fa |
[V:2]c2 z2 z4 |
[V:3]C4- CE DF |
[V:4]C,2 z2 z4 |
[V:1].gz g2 .ez f2 |
[V:2]z2 .G2 z2 .G2 |
[V:3].Ez E2 .Cz D2 |
[V:4]z8 |
[V:1].dz e2 .cz ed |
[V:2]z2 .G2 z2 .A,2 |
[V:3].B,z C2 .E,z F,2 |
[V:4]z8 |
[V:1].G2 .G2 .G2 ed |
[V:2].G,2 z2 z4 |
[V:3].G,z z2 z4 |
[V:4]z8 |
[V:1].F2 .F2 .F2 d2 |
[V:2].D2 .D2 .D2 z2 |
[V:3].G,2 .G,2 .G,2 z2 |
[V:4].B,,2 .B,,2 .B,,2 z2 |
[V:1].Ez c2 .Dz A2 |
[V:2].E2 z2 .D2 z2 |
[V:3].G,2 z2 .A,2 z2 |
[V:4].C,2 z2 .F,,2 z2 |
[V:1]C4 D3 C |
[V:2]C4 B,4 |
[V:3]E,4 G,2 F,2 |
[V:4]G,,8 |
[V:1].C.E .G.B .c.d .e.f |
[V:2]C2 z2 z4 |
[V:3]E,2 z2 z4 |
[V:4]C,4 z4 |
[V:1]g8- |
[V:2]e4- eg fa |
[V:3]c4- ce df |
[V:4]z8 |
[V:1]g8- |
[V:2].gz g2 .ez f2 |
[V:3].ez e2 .cz d2 |
[V:4]z8 |
[V:1]g8- |
[V:2].dz e2 .cz ed |
[V:3].Bz c2 .Ez F2 |
[V:4]z8 |
[V:1].gz g2 .ez f2 |
[V:2].G2 .G2 z2 .G2 |
[V:3].Gz z2 z4 |
[V:4]z2 E2 .Cz D2 |
[V:1].dz e2 .cz ed |
[V:2]z2 .G2 z2 A2 |
[V:3]z8 |
[V:4].B,z C2 .E,z F,2 |
[V:1].G2 .G2 .G2 ed |
[V:2].G2 z2 z4 |
[V:3]z8 |
[V:4].G,2 z2 z4 |
[V:1].F2 .F2 .F2 d2 |
[V:2].D2 .D2 .D2 z2 |
[V:3].B,2 .B,2 .B,2 z2 |
[V:4]z8 |
[V:1].Ez z2 z2 g2 |
[V:2].C2 z2 z4 |
[V:3].C2 z2 z4 |
[V:4]z8 |
[V:1]._Bz z2 z2 _b2 |
[V:2].G2 z2 z4 |
[V:3].E2 z2 z4 |
[V:4]z8 |
[V:1].^cz z2 z2 d'2 |
[V:2]._B2 z2 z4 |
[V:3].G2 z2 z4 |
[V:4]z8 |
[V:1].dz a2 .Az f2 |
[V:2]A2 z2 z2 f2 |
[V:3].F2 z2 z2 f2 |
[V:4]z4 z2 F2 |
[V:1].Fz d2 .Dz =B2 |
[V:2].Fz d2 .Dz B2 |
[V:3].Fz d2 .Dz =B2 |
[V:4].F,z D2 .D,z =B,2 |
[V:1].B,z G2 .G,z G2 |
[V:2].B,z G2 .G,z G2 |
[V:3].B,z G2 .G,z G2 |
[V:4].B,,z G,2 .G,,z G,2 |
[V:1].G,z G2 .G,z G2 |
[V:2].G,z G2 .G,z G2 |
[V:3].G,z G2 .G,z G2 |
[V:4].G,,z G,2 .G,,z G,2 |
[V:1]!sfz!_A,6 B,2 |
[V:2]!sfz!_A,6 B,2 |
[V:3]!sfz!_A,6 B,2 |
[V:4]!sfz!_A,,8- |
[V:1].Cz E2 .Fz G2 |
[V:2]C6 E2 |
[V:3]C8- |
[V:4]A,,8- |
[V:1]._Az B2 .cz e2 |
[V:2]F8- |
[V:3]C8- |
[V:4]A,,8- |
[V:1].fz g2 ._az b2 |
[V:2]F8- |
[V:3]C8- |
[V:4]A,,8- |
[V:1].c'z d'2 ._e'z e'2 |
[V:2]F8 |
[V:3]C8- |
[V:4]A,,8 |
[V:1]_e'4- e'.b .c'.d' |
[V:2]^F8 |
[V:3]C8 |
[V:4]=A,,8 |
[V:1]._e'.b .c'.d' .e'.b .c'.d' |
[V:2].c2 .c2 .c2 .c2 |
[V:3].^F2 .F2 .F2 .F2 |
[V:4].A,,2 .A,,2 .A,,2 .A,,2 |
[V:1]._e'.b .c'.d' .e'.b .c'.d' |
[V:2].^f2 .f2 .f2 .f2 |
[V:3].c2 .c2 .c2 .c2 |
[V:4].A,,2 .A,,2 .A,,2 .A,,2 |
[V:1]=e'f' .e'.d' e'f' .e'.d' |
[V:2]c'd' .c'.b c'd' .c'.b |
[V:3]=E6 G2 |
[V:4]G,,4 z4 |
[V:1]e'f' .e'.d' e'f' .e'.d' |
[V:2]c'd' .c'.b c'd' .c'.b |
[V:3]c2 .E2 .G2 z2 |
[V:4]z4 z2 C2 |
[V:1]e'f' .e'.d' e'f' .e'.d' |
[V:2]c'd' .c'.b c'd' .c'.b |
[V:3]z8 |
[V:4]E2 .G,2 .C2 !turn!E,2 |
[V:1]e'f' .e'.d' e'f' .e'.d' |
[V:2]c'd' .c'.b c'd' .c'.b |
[V:3]z8 |
[V:4]G,2 .C,2 .E,2 .^F,,2 |
[V:1]e'f' .e'.d' e'2 !turn!e'2 |
[V:2]c'd' .c'.b c'2 !turn!c'2 |
[V:3]z8 |
[V:4].G,,.G, .G,,.G, .G,,.G, .G,,.G, |
[V:1]f'2 .d'2 .e'2 !turn!c'2 |
[V:2]d'2 .b2 .c'2 !turn!g2 |
[V:3]z4 z2 !turn!e2 |
[V:4]G,,G, G,,G, G,,G, G,,G, |
[V:1]d'2 .b2 .c'2 !turn!g2 |
[V:2]a2 .f2 .g2 !turn!d2 |
[V:3]f2 .d2 .e2 !turn!B2 |
[V:4]G,,G, G,,G, G,,G, G,,G, |
[V:1]a2 .^f2 .g2 !turn!e2 |
[V:2]e2 .c2 .d2 !turn!B2 |
[V:3]c2 .A2 .B2 !turn!G2 |
[V:4]G,,G, G,,G, G,,G, G,,G, |
[V:1]=f2 .^d2 .e2 !turn!^c2 |
[V:2]c2 .A2 .B2 !turn!G2 |
[V:3]A2 .^F2 .G2 !turn!E2 |
[V:4]G,,G, G,,G, G,,G, G,,G, |
[V:1]=d2 .B2 .=c2 .^c2 |
[V:2]A2 .F2 .G2 ._B2 |
[V:3]=F2 .D2 .E2 .E2 |
[V:4]G,,G, G,,G, G,,G, G,,G, |
[V:1]d^c ed fe gf |
[V:2]A2 z2 z4 |
[V:3]F2 z2 z4 |
[V:4]F,2 z2 z4 |
[V:1]ag _ba gf ed |
[V:2]z8 |
[V:3]z8 |
[V:4]z8 |
[V:1]c4 !sfz!d3 c |
[V:2]E4 G2 F2 |
[V:3]C4 B,4 |
[V:4]G,4 G,,4 |
[V:1]c2 .^f2 .f2 !turn!f2 |
[V:2]E2 .d2 .d2 d2 |
[V:3]C2 .c2 .c2 c2- |
[V:4]C,2 [K:clef=tenor].A2 .A2 A2 |
[V:1]g2 .a2 .a2 .a2 |
[V:2]e2 .f2 .f2 .f2 |
[V:3]c2 .c2 .c2 .c2 |
[V:4]G2 .F2 .F2 .F2 [K:clef=bass]|
[V:1]c4 dc de |
[V:2]E4 FE FG |
[V:3]G4 B,4 |
[V:4]!sfz!G,8 |
[V:1]c2 z2 z4 |
[V:2]E2 z2 z4 |
[V:3]C2 z2 z4 |
[V:4]A,2 z2 z4 |
[V:1]z2 .^F2 .F2 F2 |
[V:2]z2 ._E2 .E2 E2 |
[V:3]z2 .C2 .C2 C2- |
[V:4]z2 .A,2 .A,2 A,2 |
[V:1]G2 .A2 .A2 .A2 |
[V:2]=E2 .F2 .F2 .F2 |
[V:3]C2 .C2 .C2 .C2 |
[V:4]G,2 .F,2 .F,2 .F,2 |
[V:1]C4 D4 |
[V:2]C4 B,4 |
[V:3]E,4 F,4 |
[V:4]G,,8 |
[V:1]CG, .G.E CG, .c.G |
[V:2]C2 z2 z4 |
[V:3]E,2 z2 z4 |
[V:4]C,2 z2 z4 |
[V:1]EC .e.c GE .g.e |
[V:2][E2G,2] z2 z4 |
[V:3]G,2 z2 z4 |
[V:4]C,2 z2 z4 |
[V:1]cG .c'.c' c'c' c'c' |
[V:2]E2 .E.G ce .E.G |
[V:3]E,2 .C,.E, G,C .C,.E, |
[V:4]C,2 z2 z4 |
[V:1]c'g .e'.e' e'e' e'e' |
[V:2]ce .G.c eg .G.c |
[V:3]G,C .E,.G, CE .E,.G, |
[V:4]C,2 z2 z4 |
[V:1]e'c' .g'.g' g'g' g'g' |
[V:2]eg .c.e gc' .c.e |
[V:3]CE .G,.C EG .G,.C |
[V:4]C,2 z2 z4 |
[V:1]g'e' .c''.c'' c''c'' c''c'' |
[V:2]gc' .c'.g ec .c'.g |
[V:3]EG .E.G ce .E.G |
[V:4]z2 .C,,.E,, G,,C, .C,,.E,, |
[V:1]c''2 EG =FA G_B |
[V:2]ec z2 z4 |
[V:3]ce z2 z4 |
[V:4]G,,C, .C,,2 .D,,2 .E,,2 |
[V:1].A2 !turn!A2 =B2 c2 |
[V:2]z8 |
[V:3]z8 |
[V:4]F,,4 z4 |
[V:1]C4 D3 C |
[V:2]C4 B,4 |
[V:3]E,4 G,2 F,2 |
[V:4]G,,8 |
[V:1]Cz c2 .Bz d2 |
[V:2]Cz E2 .Dz F2 |
[V:3]E,2 z2 z4 |
[V:4]C,2 z2 z4 |
[V:1].cz e2 .dz f2 |
[V:2].Ez c2 .Bz d2 |
[V:3]z2 C2 .C,z C2 |
[V:4]z8 |
[V:1].ez g2 .fz a2 |
[V:2].cz e2 .dz f2 |
[V:3].C,z z2 z4 |
[V:4]z2 C,2 .C,,z C,2 |
[V:1].gz z2 z2 c'2 |
[V:2].ez z2 z2 c2 |
[V:3]z4 z2 G2 |
[V:4].C,,z z2 z2 E,2 |
[V:1].az z2 z2 f2 |
[V:2].az z2 z2 d2 |
[V:3].Cz z2 z2 B2 |
[V:4].F,z z2 z2 G,2 |
[V:1].ez z2 z2 A2 |
[V:2].cz z2 z2 F2 |
[V:3].cz z2 z2 C2 |
[V:4].A,z z2 z2 F,2 |
[V:1].Gz z2 z2 [DG,]F |
[V:2].Ez z2 z2 .B,2 |
[V:3].Cz z2 z2 .G,2 |
[V:4].G,z z2 z2 .G,,2 |
[V:1]EF DF EF DF &G,8 |
[V:2].C2 .B,2 .C2 .B,2 |
[V:3].G,2 .G,2 .G,2 .G,2 |
[V:4].C,,2 .G,,2 .C,,2 .G,,2 |
[V:1][E2G,2] .c2 .e2 [DG,]F |
[V:2].C2 z2 z2 .B,2 |
[V:3].G,2 z2 z2 .G,2 |
[V:4].C,,2 z2 z2 .G,,2 |
[V:1]EF DF EF DF &G,8 |
[V:2].C2 .B,2 .C2 .B,2 |
[V:3].G,2 .G,2 .G,2 .G,2 |
[V:4].C,,2 .G,,2 .C,,2 .G,,2 |
[V:1][E4G,4] [e4c4] |
[V:2]C4 [c4E4] |
[V:3]G,4 [E4G,4] |
[V:4]C,,4 [C,4C,,4] |
[V:1][E4C4] z4 :|]
[V:2][c4E4] z4 :|]
[V:3][E4G,4] z4 :|]
[V:4][C,4C,,4] z4 :|]

